!!!!SEGMENT: pl-wtm--r-92-n--002_noskowski-zygmunt--bajki-dzieci-i-zaby.krn
!!!cenid: 18xx:2133
!!!COM: Noskowski, Zygmunt
!!!COM-rismid: pe106604
!!!CDT: 1846/05/02-1909/07/23
!!!CNT: Polish
!!!OTL: Bajki – Dzieci i żaby
!!!PDT: 1875
!!!AGN: Secular
!!!SMS-siglum: PL-Wtm
!!!SMS-shelfmark: R 92/N
!!!SMS-shelfwork: 002 G
!!!SMS-variant:
!!!SMS-altvar:
!!!NIFC-rismid: 1001084153
!!!URL-scan: http://repozytorium.nifc.pl/skany/pl-wtm-nut--r92n
!!!ONB-nifc:
**kern	**kern	**fing	**dynam	**kern	**text	**dynam
*part2	*part2	*part2	*part2	*part1	*part1	*part1
*staff3	*staff2	*	*	*staff1	*staff1	*
*	*I"[Piano]	*	*	*I"[Voce]	*	*
*	*I'pf	*	*	*I'V	*	*
*clefF4	*clefG2	*	*	*clefG2	*	*
*k[f#c#]	*k[f#c#]	*	*	*k[f#c#]	*	*
*M9/8	*M9/8	*	*	*M9/8	*	*
=1	=1	=1	=1	=1	=1	=1
!LO:TX:t=P:problem:all\right	!LO:TX:a:t=Allegretto	!	!	!LO:TX:a:t=Allegretto	!	!
8%9r	8a/	.	p	8%9r	.	.
.	8r	.	.	.	.	.
.	8r	.	.	.	.	.
.	8a/	.	.	.	.	.
.	8r	.	.	.	.	.
.	8a/ 8b-X	.	.	.	.	.
.	8g#X/ 8b-	.	.	.	.	.
.	8r	.	.	.	.	.
.	8a/	.	.	.	.	.
=2	=2	=2	=2	=2	=2	=2
8%9r	8r	.	.	8%9r	.	.
.	8r	.	.	.	.	.
.	8a/	.	.	.	.	.
.	8a/	.	.	.	.	.
.	8r	.	.	.	.	.
.	8a/ 8b-X	.	.	.	.	.
.	8g#X/ 8b-	.	.	.	.	.
.	8r	.	.	.	.	.
.	8a/	.	.	.	.	.
=3	=3	=3	=3	=3	=3	=3
!	!	!	!	!	!	!LO:DY:b
4D\	4f#/ 4a	.	p	8a/	Ko-	p
.	.	.	.	8g/	-ło	.
8r	8r	.	.	8f#/	je-	.
4r	4r	.	.	8f#/	-zio-	.
.	.	.	.	8a/	-ra,	.
8r	8r	.	.	8dd\	z wie-	.
4D\	4g/ 4b	.	.	4b/	-czo-	.
!LO:TX:t=P:problem:brak wpisanej pauzy	!	!	!	!	!	!
8ryy	8r	.	.	8g/	-ra	.
!LO:PB:g=original	!	!	!	!	!	!
=4	=4	=4	=4	=4	=4	=4
4D\	4f#/ 4a	.	.	4f#/	Chło-	.
8r	8r	.	.	8g/	-pcy	.
4r	8r	.	.	8a/	w ko-	.
.	8d'/L	.	.	8d/	-ło	.
8r	8c#'/J 8e	.	.	8e/	bie-	.
4r	8d'/L 8f#	.	.	(8f#/L	-ga-	.
.	8e'/ 8g	.	.	8g/J)	.	.
8r	8f#'/J 8a	.	.	8a/	-ły,	.
=5	=5	=5	=5	=5	=5	=5
4AA/	8e\ 8cc#	.	.	4cc#\	I	.
.	8r	.	.	.	.	.
8r	8b'\ 8dd	.	.	8b\	na	.
4r	8cc#'\L 8ee	.	.	4.a/	ża-	.
.	8b'\ 8dd	.	.	.	.	.
8r	8a'\J 8cc#	.	.	.	.	.
4AA/	8g#X'/L 8b	.	.	(8b\L	-by	.
.	8f#'/ 8a	.	.	8cc#\J)	.	.
8r	8e'/J 8g#	.	.	8dd\	czu-	.
=6	=6	=6	=6	=6	=6	=6
4AA/	4.c#/ 4.e 4.a	.	.	4.ee\	-wa-	.
8r	.	.	.	.	.	.
4r	8a/	.	.	4a/	-ły	.
.	8r	.	.	.	.	.
8r	8a/	.	.	8r	.	.
4r	8g#X/ 8b-X	.	.	4r	.	.
.	8r	.	.	.	.	.
8r	8a/	.	.	8r	.	.
=7	=7	=7	=7	=7	=7	=7
4D\	8f#'/L 8a	.	.	[4.a/	Sko-	.
.	8e'/ 8gn	.	.	.	.	.
8r	8d'/J 8f#	.	.	.	.	.
4r	8d'/L 8f#	.	.	4a/]	.	.
.	8f#'/ 8a	.	.	.	.	.
8r	8f#'/J 8dd	.	.	8dd\	-ro	.
4D\	4g/ 4b	.	.	4b\	któ-	.
8r	8e/ 8g	.	.	8g/	-ra	.
!!LO:LB:g=original	!	!	!	!	!	!
=8	=8	=8	=8	=8	=8	=8
4D\	4d/ 4f#	.	.	4f#/	wy-	.
8r	8e/ 8g	.	.	8g/	-pły-	.
8r	8f#/L 8a	.	.	4.a/	-wa-	.
8r	8d'/	.	.	.	.	.
(16A\LL	8c#'/J 8e	.	.	.	.	.
16G\JJ	.	.	.	.	.	.
8F#^\L)	8d'/L 8f#	.	.	8d/	-ła,	.
8E'\	8e'/ 8g	.	.	8r	.	.
8D'\J	8f#'/J 8a	.	.	8r	.	.
=9	=9	=9	=9	=9	=9	=9
4BB#X^>/	4f#^>/ 4a	.	.	8r	.	.
.	.	.	.	8r	.	.
!	!	!	!	!	!	!LO:HP:a:t=cres
8r	8r	.	.	8a/	Ka-	<
!	!	!	!LO:HP:t=cres	!	!	!
4C#^>/	4f#^/ 4g#X	.	<	(8g#X/L	-mie-	.
.	.	.	.	8a/J)	.	.
8r	8r	.	[	8b/	-niem	.
4CC#^>/ 4C#	4B^/ 4e#X 4g#	.	.	8cc#\	w łeb	[
.	.	.	.	8dd\	dos-	.
8r	8r	.	.	8cc#\	-ta-	.
=10	=10	=10	=10	=10	=10	=10
*	*	*	*^	*	*	*
*	*	*	*	*^	*	*	*
!	!	!	!LO:DY:a=1	!	!	!	!	!LO:DY:a
8AAA/ 8AA	8f#\ 8cc# 8ff#	.	sfz	f	sfz	2.ff#\	-wa-	f
*	*	*	*v	*v	*v	*	*	*
8r	8r	.	.	.	.	.
8r	8ff#'\	.	.	.	.	.
(16c#\LL	(16cc#\LL	.	.	.	.	.
16d\	16dd\	.	.	.	.	.
16c#\	16cc#\	.	.	.	.	.
16B\	16b\	.	.	.	.	.
16A\	16a\	.	.	.	.	.
16G#X\JJ	16g#X\JJ)	.	.	.	.	.
8F#\)	8f#/	.	.	4f#/	-ła.	.
8r	8r	.	.	.	.	.
*	*	*	*^	*	*	*
!	!	!	!LO:DY:a	!LO:DY:b=1	!	!	!
8CC#/ 8C#	8B/ 8e#X 8g#	.	sfz	sfz	8r	.	.
=11	=11	=11	=11	=11	=11	=11	=11
!	!	!	!LO:DY:a	!LO:DY:b=1	!	!	!
8FFF#/ 8FF#	8A/ 8f# 8a	.	sfz	sfz	8%9r	.	.
*	*	*	*v	*v	*	*	*
8r	8r	.	.	.	.	.
8r	8cc#'\	.	.	.	.	.
(16A\LL	(16a/LL	.	.	.	.	.
16G#X\	16g#X/	.	.	.	.	.
16F#\	16f#/	.	.	.	.	.
16G#\	16g#/	.	.	.	.	.
16A\	16a/	.	.	.	.	.
16F#\JJ	16f#/JJ	.	.	.	.	.
8C#/)	8c#/)	.	.	.	.	.
8r	8r	.	.	.	.	.
!	!	!	!LO:DY:a	!	!	!
8CC#/ 8C#	8B/ 8e#X 8g#	.	sfz	.	.	.
!!LO:LB:g=original
=12	=12	=12	=12	=12	=12	=12
8FFF#/ 8FF#	16A^>/LL 16a 16cc#	.	sfz	8%9r	.	.
.	(16g#X/	.	.	.	.	.
8r	16f#/	.	.	.	.	.
.	16g#/	.	.	.	.	.
(16A\LL	16a/	.	.	.	.	.
16F#\JJ	16f#/JJ	.	.	.	.	.
8C#/)	8c#/)	.	.	.	.	.
8r	8r	.	.	.	.	.
*	*	*	*^	*	*	*
!	!	!	!LO:DY:a	!LO:DY:a=2	!	!	!
8C#/	8d/ 8e#X 8g#	.	sfz	sfz	.	.	.
!	!	!	!LO:DY:a	!LO:DY:a=2	!	!	!
8FF#/	8c#/ 8f# 8a	.	sfz	sfz	.	.	.
8r	8r	.	.	.	.	.	.
!	!	!	!LO:DY:a	!LO:DY:a=2	!	!	!
8C#/	8G#X/ 8d 8e#	.	sfz	sfz	.	.	.
*	*	*	*v	*v	*	*	*
=13	=13	=13	=13	=13	=13	=13
*ped	*	*	*	*	*	*
(8.FF#/L	[4.A/ [4.c# [4.f#	.	.	8%9r	.	.
16AA/L	.	.	.	.	.	.
16BB#X/	.	.	.	.	.	.
16C#/JJ	.	.	.	.	.	.
8F#\)	16A/LL] 16c#] 16f#]	.	.	.	.	.
.	(16A/	1	.	.	.	.
8r	16B#X/	2	.	.	.	.
.	16c#/	3	.	.	.	.
2r	16f#/	4	.	.	.	.
.	16a/JJ	1	.	.	.	.
.	16b#X\LL	.	.	.	.	.
.	16cc#\	.	.	.	.	.
.	16ff#\	.	.	.	.	.
.	16aa\	1	.	.	.	.
.	16bb#X\	.	.	.	.	.
.	16ccc#\JJ	.	.	.	.	.
=14	=14	=14	=14	=14	=14	=14
!LO:TX:b:t=*	!	!	!	!	!	!
8r;	8fff#;\)	.	.	8r;	.	.
8r	8r	.	.	8r	.	.
8r;	8r;	.	.	8r;	.	.
!	!LO:TX:a:t=meno mosso	!	!	!LO:TX:a:t=meno mosso	!	!LO:DY:b
4r	4r	.	.	8f#/	Je-	p
.	.	.	.	8f#/	-dna	.
8r	8r	.	.	8g#X/	z nich	.
4r	4r	.	.	8a/	śmiel-	.
.	.	.	.	8g#/	-széj	.
8r	8r	.	.	8a/	na-	.
!!LO:LB:g=original
=15	=15	=15	=15	=15	=15	=15
8%9r	4r	.	.	([4.a/	-tu-	.
.	8r	.	.	.	.	.
.	8f#'/L 8a	.	p	4a/]	.	.
.	8f#'/ 8a	.	.	.	.	.
.	8g#X'/J 8b	.	.	8b/)	.	.
.	8a'/L 8cc#	.	.	4cc#\	-ry,	.
.	8f#'/ 8a	.	.	.	.	.
.	8g#'/J 8b	.	.	8r	.	.
=16	=16	=16	=16	=16	=16	=16
8%9r	4a/ 4cc#	.	.	4r	.	.
.	8g#X/ 8b	.	.	8r	.	.
.	4f#/ 4a	.	.	8a/	Jed-	.
.	.	.	.	8a/	-na	.
.	8r	.	.	8b/	z nich	.
.	4r	.	.	8cc#\	śmiel-	.
.	.	.	.	8a/	-széj	.
.	8r	.	.	8b/	na-	.
=17	=17	=17	=17	=17	=17	=17
4r	4r	.	.	4cc#\	-tu-	.
8r	8r	.	.	8dd\	-ry,	.
(2.A\	8gn'\L 8a 8cc#	.	p	[4.ee\	Wy-	.
.	8g'\ 8b 8dd	.	.	.	.	.
.	8g'\J 8cc# 8ee	.	.	.	.	.
.	8g'\L 8cc# 8ee	.	.	4ee\]	.	.
.	8g'\ 8b 8dd	.	.	.	.	.
.	8g'\J 8a 8cc#	.	.	8ee\	-sta-	.
=18	=18	=18	=18	=18	=18	=18
4AA/)	4g\ 4b 4dd	.	.	4dd\	-wi-	.
8r	8r	.	.	8b\	-wszy	.
(2.A\	8d'/L 8g 8b	.	.	([4.b\	łeb	.
.	8d'/ 8f# 8a#X	.	.	.	.	.
.	8d'/J 8g 8b	.	.	.	.	.
.	8d'/L 8g 8b	.	.	8b\L]	.	.
.	8d'/ 8f# 8an	.	.	8cc#\J)	.	.
.	8d'/J 8e 8g	.	.	8dd\	do	.
!!LO:LB:g=original
=19	=19	=19	=19	=19	=19	=19
4AA/)	4d/ 4f# 4a	.	.	(4dd\	gó-	.
8r	8r	.	.	8a/)	.	.
[4.AA/	8A'>/L 8c# 8f# 8a	.	>	4f#/	-ry	.
.	8A'>/ 8f# 8a	.	.	.	.	.
.	8A'>/J 8e 8g	.	.	8r	.	.
8AA/]	8A'>/L 8d 8f#	.	.	4r	.	.
8r	8A'>/ 8c# 8e	.	.	.	.	.
8r	8A'>/J 8B 8d	.	]	8r	.	.
=20	=20	=20	=20	=20	=20	=20
*	*^	*	*	*	*	*
!	!	!	!	!	!	!	!LO:DY:b
[4.AAA/ [4.AA	[4.c#/ [4.e	(4.A\	.	pp	(8a/L	Rze-	pp
.	.	.	.	.	8b/	.	.
.	.	.	.	.	8a/J)	.	.
4AAA;/] 4AA]	4c#;/] 4e]	4G;\)	.	.	4e;/	-kła:	.
8r;	8r;	2ryy	.	.	8r;	.	.
!	!LO:TX:b:t=riten	!	!	!	!LO:TX:b:t=riten	!	!
4r	8a'/L	.	.	f	4r	.	.
.	8b'/	.	.	.	.	.	.
8r	8a'^>/J	.	.	.	8r	.	.
*	*v	*v	*	*	*	*	*
=21	=21	=21	=21	=21	=21	=21
!	!LO:TX:a:t=Moderato	!	!	!LO:TX:a:t=Moderato	!	!
8%9r	8a/	.	p	8%9r	.	.
.	8r	.	.	.	.	.
.	8r	.	.	.	.	.
.	8a/	.	.	.	.	.
.	8r	.	.	.	.	.
.	8a/ 8b-X	.	.	.	.	.
.	8g#X/ 8b-	.	.	.	.	.
.	8r	.	.	.	.	.
.	8g#/ 8b-	.	.	.	.	.
=22	=22	=22	=22	=22	=22	=22
8%9r	8r	.	.	8%9r	.	.
.	8r	.	.	.	.	.
.	8a/	.	.	.	.	.
.	8a/	.	.	.	.	.
.	8r	.	.	.	.	.
.	8a/ 8b-X	.	.	.	.	.
.	8g#X/ 8b-	.	.	.	.	.
.	8r	.	.	.	.	.
.	8a/	.	.	.	.	.
!!LO:PB:g=original	!	!	!	!	!	!
=23	=23	=23	=23	=23	=23	=23
!	!	!	!	!LO:TX:a:t=sostenuto	!	!LO:DY:b
4D\	8f#'/L 8a	.	p	4a/	Chłop-	p
!	!LO:TX:b:t=sostenuto	!	!	!	!	!
.	8e'/ 8g	.	.	.	.	.
8r	8d'/J 8f#	.	.	8r	.	.
4r	8d'/L 8f#	.	.	8a/	-cy,	.
.	8f#'/ 8a	.	.	8r	.	.
8r	8f#'/J 8dd	.	.	8a/	prze-	.
4D\	8g'/ 8b-X	.	.	8b-X/	-stań-	.
.	8r	.	.	8r	.	.
8r	8e'/ 8g	.	.	8b-/	-cie,	.
=24	=24	=24	=24	=24	=24	=24
4D\	8f#'/	.	.	8a/	bo	.
.	8r	.	.	8r	.	.
8r	8e'/ 8g	.	.	8a/	się	.
8r	8f#'/L 8a	.	.	8a/	źle	.
8r	8d'/	.	.	8r	.	.
(16A\LL	8c#'/J 8e	.	.	8a/	ba-	.
16G\JJ	.	.	.	.	.	.
8F#\L)	8d'/L 8f#	.	.	8a/	-wi-	.
8E'\	8e'/ 8g	.	.	8r	.	.
8D'\J	8f#'/J 8a	.	.	8a/	-cie,	.
=25	=25	=25	=25	=25	=25	=25
4AA/	8e'/ 8cc#	.	.	4r	.	.
.	8r	.	.	.	.	.
8r	8b'\ 8dd	.	.	8r	.	.
4r	8cc#'\L 8ee	.	.	4a/	bo	.
.	8b'\ 8dd	.	.	.	.	.
8r	8a'\J 8cc#	.	.	8a/	się	.
4.E\	4.d/ 4.g#X 4.b	.	.	(8b\L	źle	.
.	.	.	.	8cc#\J)	.	.
.	.	.	.	8dd\	ba-	.
=26	=26	=26	=26	=26	=26	=26
[2.AA/	(>8d'/L 8gn 8b	.	.	([4.ee\	-wi-	.
.	8e'/ 8g 8cc#	.	.	.	.	.
.	8d'/J) 8g 8b	.	.	.	.	.
.	4.c#/ 4.g 4.a	.	.	8ee\L]	.	.
.	.	.	.	8cc#\	.	.
.	.	.	.	8b\J)	.	.
4AA/]	8a'/	.	.	4a/	-cie	.
.	8r	.	.	.	.	.
8r	8a'/	.	.	8r	.	.
!!LO:LB:g=original
=27	=27	=27	=27	=27	=27	=27
4D\	8f#'/L 8a	.	.	[4.a/	Dla	.
.	8e'/ 8g	.	.	.	.	.
8r	8d'/J 8f#	.	.	.	.	.
8r	8d'/L 8f#	.	.	4a/]	.	.
8c#'\L	8f#'/ 8a	.	.	.	.	.
8B'\J	8f#'/J 8dd	.	.	8dd\	was	.
8G'\L	8g'/ 8b	.	.	(4b/	to	.
8B'\	8r	.	.	.	.	.
8c#'\J	8e'/ 8g	.	.	8g/)	.	.
=28	=28	=28	=28	=28	=28	=28
(16d\LL	8d'/ 8f#	.	.	4f#/	jest	.
16B\J	.	.	.	.	.	.
8A\)	8r	.	.	.	.	.
8G'\J	8e'/ 8g	.	.	8g/	i-	.
8F#'\	8d'/L 8a	.	.	4.a/	-grasz-	.
8r	8d'/	.	.	.	.	.
8E'\	8c#'/J 8e	.	.	.	.	.
16D'/LL	8d'/L 8f#	.	<	4d/	-ką,	.
16C#'/	.	.	.	.	.	.
16BB'/	8d'/ 8g	.	.	.	.	.
16AA'/	.	.	.	.	.	.
16GG'/	8d'/J 8f# 8a	.	.	8r	.	.
!	!	!	!LO:HP:t=cres	!	!	!
16FF#'/JJ	.	.	[	.	.	.
=29	=29	=29	=29	=29	=29	=29
*	*	*	*^	*	*	*
*	*	*	*	*^	*	*	*
!	!	!	!LO:DY:b=1	!LO:DY:a=2	!LO:DY:a=1	!	!	!
!	!LO:T:n=2:a	!	!	!	!	!	!	!
!	!LO:T:n=1:b	!	!	!	!	!	!	!
[2.EE/	[2.d/ [2.g [2.b	.	f	sfz	sfz	8r	.	.
*	*	*	*v	*v	*v	*	*	*
.	.	.	.	8r	.	.
!	!	!	!	!	!	!LO:DY:a
.	.	.	.	8b\	nam	f
.	.	.	.	([4.ff#\	i-	.
8EE/]	4.d/] 4.g] 4.b]	.	.	8ff#\L]	.	.
8r	.	.	.	8ee\	.	.
8r	.	.	.	8dd\J)	.	.
=30	=30	=30	=30	=30	=30	=30
!	!LO:T:n=2:a	!	!	!	!	!
!	!LO:T:n=1:b	!	!	!	!	!
[2.E\	[2.d/ [2.g [2.b	.	p	8b\	-dzie	.
.	.	.	.	8r	.	.
.	.	.	.	8b\	nam	p
.	.	.	.	([4.dd\	i-	.
8E\]	8d/] 8g] 8b]	.	.	8dd\L]	.	.
8r	8r	.	.	8b\	.	.
8r	8r	.	.	8g\J)	.	.
!!LO:LB:g=original
=31	=31	=31	=31	=31	=31	=31
[2.AA/	8d'/L 8f# 8a	.	.	8f#/	-dzie	.
.	8f#'/ 8a	.	.	8r	.	.
.	8e'/J 8g 8a	.	.	8g/	nam	.
!	!LO:TX:b:t=rallent	!	!	!LO:TX:a:t=rallent	!	!
.	8d'/L 8f# 8a	.	.	4.a/	i-	.
.	8c#'/ 8e 8a	.	.	.	.	.
.	8d'/J 8f# 8a	.	.	.	.	.
4.AA/]	8f#'/L 8a	.	.	8b\	-dzie	.
.	8e'/ 8g 8a	.	.	8r	.	.
.	8A'/J 8g 8a	.	.	8cc#\	o	.
=32	=32	=32	=32	=32	=32	=32
!	!LO:TX:a:t=a tempo	!	!	!LO:TX:a:t=a tempo	!	!
8DD'/L	4f#/ 4a	.	p	([2.dd\	ży-	.
8FF#'/	.	.	.	.	.	.
8AA'/J	8r	.	.	.	.	.
8D'/L	4a/	.	.	.	.	.
8C#'/	.	.	.	.	.	.
8D'/J	8r	.	.	.	.	.
8D'/L	8a'/ 8b-X	.	.	4.dd\_	.	.
8C#'/	8r	.	.	.	.	.
8D'/J	8g#X'/ 8b-	.	.	.	.	.
=33	=33	=33	=33	=33	=33	=33
8DD'/L	4a/	.	.	2.dd\_	.	.
8FF#'/	.	.	.	.	.	.
8AA'/J	8r	.	.	.	.	.
!	!	!	!LO:HP:t=diminuendo è rallent	!	!	!
8D'/L	4a/	.	>	.	.	.
8C#'/	.	.	.	.	.	.
8D'/J	8r	.	.	.	.	.
8D'/L	8a/ 8b-X	.	.	4.dd\])	.	.
8C#'/	8r	.	.	.	.	.
8D'/J	8g#X/ 8b-	.	.	.	.	.
=34	=34	=34	=34	=34	=34	=34
8DD'/L	4a/	.	.	[2.d/	-cie	.
8FF#'/	.	.	.	.	.	.
8AA'/J	8r	.	.	.	.	.
8D'/L	4a/	.	.	.	.	.
8C#'/	.	.	.	.	.	.
8D'/J	8r	.	.	.	.	.
8D'/L	4g#X^>/ 4a	.	]	4d/]	.	.
8C#'/	.	.	.	.	.	.
8D'/J	8r	.	.	8r	.	.
=35	=35	=35	=35	=35	=35	=35
[2.D\	[2.f#/ [2.a	.	pp	4r	.	.
.	.	.	.	8r	.	.
.	.	.	.	4r	.	.
.	.	.	.	8r	.	.
4D;\]	4f#;/] 4a]	.	.	4r;	.	.
8r;	8r;	.	.	8r;	.	.
==	==	==	==	==	==	==
*-	*-	*-	*-	*-	*-	*-
!!!system-decoration: {s1,<s2,s3>}
!!!RDF**kern: > = above
!!!RDF**kern: < = below
!!!ENC:Anastazja Marusiak
!!!END:2021-05-12
